X:1279
T:A Ha'Penny for a Cotton Ball
R:Reel
N:Collected by F. O'Neill
B:O'Neill's 1279
Z:transcribed by Trish O'Neil
M:C|
L:1/8
K:G
GA|B2BA Bcd2|efed efg2|BcBA GABG|AGEFG2:|
d2|gfed edBd|gfede2ef|agfed edBA|BGEFG2ef|
agfed edBd|gfede2ef|gbaf gfed|egfag2|]
